X:1
T:Jesus, Hear Me
T:Jesus, Hear Me
T:William Batchelder Bradbury
T:Frances Jane (Fanny) Crosby, 1869
T:Public Domain Courtesy of the Cyber Hymnal™
C:William Batchelder Bradbury
Z:Public Domain
Z:Courtesy of the Cyber Hymnal™
%%score ( 1 2 ) ( 3 4 )
L:1/8
Q:1/4=95
M:2/4
K:Eb
V:1 treble 
V:2 treble 
V:3 bass 
V:4 bass 
V:1
 [EG][EG] [EG][EG] | [EG][DF] E2 | [DF][DF] [DF][CE] | [B,D][CE] [DF]2 | [EG][EG] [EG][EG] | %5
w: 1.~Sav- ior, bless a|lit- tle child;|Teach my heart the|way to Thee;|Make it gen- tle,|
w: 2.~I am young, but|Thou hast said—|All who will, may|come to Thee;|Feed my soul with|
w: 3.~Je- sus, help me,|I am weak;|Let me put my|trust in Thee;|Teach me how and|
 [EG][DF] E2 | [CF][CF] [FA][FA] | [EG][DF] E2 ||"^Refrain" [EG]2 [EG][EG] | [EG]2 [EB]2 | %10
w: good and mild;|Lov- ing Sav- ior,|care for me.|||
w: liv- ing Bread;|Lov- ing Sav- ior,|care for me.|Hear me, O|Sav- ior,|
w: what to speak;|Lov- ing Sav- ior,|care for me.|||
 [DB][DF] [DF][DF] | [EG][Ec] [EB]2 | [Ec]2 [Ae]2 | [GB]2 [EG]2 | [DF][DF] [EG][B,F] | [B,E]4 |] %16
w: ||||||
w: Hear Thy lit- tle|child to- day;|Hear, O|hear me;|Hear me when I|pray.|
w: ||||||
V:2
 x4 | x2 E2 | x4 | x4 | x4 | x2 E2 | x4 | x2 E2 || x4 | x4 | x4 | x4 | x4 | x4 | x4 | x4 |] %16
V:3
 [E,B,][E,B,] [E,B,][E,B,] | [B,,B,][B,,A,] [E,G,]2 | [B,,B,][B,,B,] [B,,B,][B,,F,] | %3
 [B,,F,][B,,B,] [B,,B,]2 | [E,B,][E,B,] [E,B,][E,B,] | [E,B,][B,,A,] [C,G,]2 | %6
 [A,,A,][A,,A,] [F,,C][F,,C] | [B,,B,][B,,A,] [E,G,]2 || [E,B,]2 [E,B,][E,B,] | [E,B,]2 [E,G,]2 | %10
 [B,,F,][B,,B,] [B,,B,][B,,B,] | [E,B,][E,A,] [E,G,]2 | A,2 [A,C]2 | [E,E]2 [E,B,]2 | %14
 [B,,B,][B,,B,] [B,,B,][B,,A,] | [E,G,]4 |] %16
V:4
 x4 | x4 | x4 | x4 | x4 | x4 | x4 | x4 || x4 | x4 | x4 | x4 | A,2 x2 | x4 | x4 | x4 |] %16

